;Generated with Cura_SteamEngine 13.06.4
M109 T0 S215.000000
T0
;Sliced at: Sat 14 Sep 2013 00:55:34
;Basic settings: Layer height: 0.1 Walls: 0.8 Fill: 10
;Print time: #P_TIME#
;Filament used: #F_AMNT#m #F_WGHT#g
;Filament cost: #F_COST#
G21        ;metric values
G90        ;absolute positioning
M107       ;start with the fan off
G28 X0 Y0  ;move X/Y to min endstops
G28 Z0     ;move Z to min endstops
G1 Z15.0 F10500 ;move the platform down 15mm
G92 E0                  ;zero the extruded length
G1 F200 E3              ;extrude 3mm of feed stock
G92 E0                  ;zero the extruded length again
G1 F10500
M117 Printing...

;total_layers=199
;LAYER:0
M107
G0 F2700 X92.05 Y86.68 Z0.30
;TYPE:SKIRT
G1 F1140 X94.18 Y84.55 E0.05518
G1 X94.56 Y84.26 E0.06384
G1 X97.17 Y82.76 E0.11903
G1 X97.61 Y82.58 E0.12764
G1 X100.53 Y81.79 E0.18287
G1 X101.00 Y81.73 E0.19156
G1 X104.03 Y81.74 E0.24704
G1 X104.50 Y81.80 E0.25564
G1 X107.39 Y82.58 E0.31049
G1 X107.82 Y82.76 E0.31909
G1 X110.44 Y84.26 E0.37428
G1 X110.81 Y84.55 E0.38293
G1 X112.95 Y86.68 E0.43811
G1 X113.23 Y87.06 E0.44677
G1 X114.74 Y89.67 E0.50196
G1 X114.92 Y90.11 E0.51057
G1 X115.70 Y93.02 E0.56576
G1 X115.77 Y93.49 E0.57442
G1 X115.77 Y96.51 E0.62957
G1 X115.70 Y96.98 E0.63822
G1 X114.92 Y99.89 E0.69342
G1 X114.74 Y100.32 E0.70203
G1 X113.23 Y102.94 E0.75722
G1 X112.95 Y103.31 E0.76587
G1 X110.81 Y105.45 E0.82106
G1 X110.44 Y105.73 E0.82971
G1 X107.82 Y107.24 E0.88490
G1 X107.39 Y107.42 E0.89351
G1 X104.48 Y108.20 E0.94870
G1 X104.01 Y108.27 E0.95736
G1 X100.99 Y108.27 E1.01251
G1 X100.52 Y108.20 E1.02117
G1 X97.61 Y107.42 E1.07636
G1 X97.17 Y107.24 E1.08497
G1 X94.56 Y105.73 E1.14016
G1 X94.18 Y105.45 E1.14882
G1 X92.05 Y103.31 E1.20400
G1 X91.76 Y102.94 E1.21265
G1 X90.26 Y100.32 E1.26784
G1 X90.08 Y99.89 E1.27645
G1 X89.29 Y96.98 E1.33165
G1 X89.23 Y96.51 E1.34030
G1 X89.23 Y93.49 E1.39545
G1 X89.29 Y93.02 E1.40410
G1 X90.08 Y90.11 E1.45930
G1 X90.26 Y89.67 E1.46791
G1 X91.76 Y87.06 E1.52310
G1 X92.05 Y86.68 E1.53175
G0 F2700 X92.35 Y86.95
G1 F1140 X94.45 Y84.85 E1.58600
G1 X94.78 Y84.60 E1.59369
G1 X97.35 Y83.12 E1.64790
G1 X97.74 Y82.96 E1.65558
G1 X100.60 Y82.19 E1.70984
G1 X101.02 Y82.13 E1.71755
G1 X104.00 Y82.14 E1.77209
G1 X104.42 Y82.19 E1.77972
G1 X107.26 Y82.96 E1.83363
G1 X107.65 Y83.12 E1.84129
G1 X110.22 Y84.60 E1.89551
G1 X110.55 Y84.85 E1.90319
G1 X112.65 Y86.95 E1.95744
G1 X112.90 Y87.28 E1.96512
G1 X114.38 Y89.85 E2.01934
G1 X114.54 Y90.24 E2.02702
G1 X115.31 Y93.10 E2.08126
G1 X115.37 Y93.52 E2.08894
G1 X115.37 Y96.48 E2.14314
G1 X115.31 Y96.90 E2.15082
G1 X114.54 Y99.76 E2.20506
G1 X114.38 Y100.15 E2.21274
G1 X112.90 Y102.72 E2.26695
G1 X112.65 Y103.05 E2.27464
G1 X110.55 Y105.15 E2.32889
G1 X110.22 Y105.40 E2.33657
G1 X107.65 Y106.88 E2.39078
G1 X107.26 Y107.04 E2.39846
G1 X104.40 Y107.81 E2.45271
G1 X103.98 Y107.87 E2.46038
G1 X101.02 Y107.87 E2.51459
G1 X100.60 Y107.81 E2.52226
G1 X97.74 Y107.04 E2.57651
G1 X97.35 Y106.88 E2.58418
G1 X94.78 Y105.40 E2.63840
G1 X94.45 Y105.15 E2.64608
G1 X92.35 Y103.05 E2.70033
G1 X92.10 Y102.72 E2.70802
G1 X90.62 Y100.15 E2.76223
G1 X90.46 Y99.76 E2.76991
G1 X89.69 Y96.90 E2.82415
G1 X89.63 Y96.48 E2.83183
G1 X89.63 Y93.52 E2.88603
G1 X89.69 Y93.10 E2.89370
G1 X90.46 Y90.24 E2.94795
G1 X90.62 Y89.85 E2.95562
G1 X92.10 Y87.28 E3.00984
G1 X92.35 Y86.95 E3.01752
G1 F2400 E-1.48248
G0 F2700 X95.25 Y89.43
;LAYER:189
G0 F7620 X101.75 Y102.36 Z19.20
;TYPE:WALL-INNER
G1 F3240 X101.76 Y102.46 E329.87167
G1 X101.78 Y102.53 E329.87210
G1 X101.69 Y102.80 E329.87380
G1 X101.53 Y103.10 E329.87588
G1 X101.29 Y103.45 E329.87844
G1 X101.28 Y103.48 E329.87863
G1 X101.13 Y103.64 E329.88000
G1 X100.91 Y103.59 E329.88139
G1 X100.82 Y103.29 E329.88333
G1 X100.76 Y103.19 E329.88401
G1 X100.71 Y102.86 E329.88606
G1 X100.68 Y102.77 E329.88660
G1 X100.67 Y102.53 E329.88808
G1 X100.65 Y102.47 E329.88845
G1 X100.67 Y102.31 E329.88944
G1 X100.66 Y102.28 E329.88962
G1 X100.68 Y102.20 E329.89010
G1 X100.68 Y102.08 E329.89082
G1 X100.68 Y102.07 E329.89092
G1 X100.99 Y101.25 E329.89625
G1 X101.02 Y101.04 E329.89755
G1 X101.00 Y100.89 E329.89846
G1 X100.90 Y100.64 E329.90010
G1 X100.81 Y100.52 E329.90104
G1 X100.59 Y100.35 E329.90272
G1 X99.66 Y99.83 E329.90925
G1 X99.56 Y99.80 E329.90986
G1 X99.39 Y99.77 E329.91092
G1 X99.31 Y99.74 E329.91143
G1 X99.24 Y99.72 E329.91191
G1 X99.08 Y99.70 E329.91284
G1 X98.78 Y99.76 E329.91472
G1 X98.57 Y99.90 E329.91624
G1 X98.54 Y99.94 E329.91656
G1 X98.47 Y100.00 E329.91713
G1 X98.37 Y100.15 E329.91823
G1 X98.33 Y100.29 E329.91913
G1 X97.89 Y100.88 E329.92363
G1 X97.78 Y100.98 E329.92450
G1 X97.60 Y101.12 E329.92592
G1 X97.31 Y101.29 E329.92795
G1 X96.89 Y101.47 E329.93070
G1 X96.67 Y101.53 E329.93210
G1 X96.49 Y101.34 E329.93372
G1 X96.59 Y100.98 E329.93600
G1 X96.60 Y100.91 E329.93643
G1 X96.74 Y100.58 E329.93862
G1 X96.76 Y100.53 E329.93895
G1 X96.89 Y100.30 E329.94058
G1 X96.91 Y100.26 E329.94081
G1 X96.98 Y100.16 E329.94159
G1 X97.10 Y100.03 E329.94266
G1 X97.14 Y99.96 E329.94315
G1 X97.84 Y99.47 E329.94836
G1 X97.99 Y99.27 E329.94987
G1 X98.06 Y99.12 E329.95089
G1 X98.10 Y98.87 E329.95244
G1 X98.09 Y98.72 E329.95333
G1 X98.01 Y98.48 E329.95488
G1 X97.95 Y98.37 E329.95568
G1 X97.50 Y97.53 E329.96149
G1 X97.43 Y97.44 E329.96212
G1 X97.31 Y97.33 E329.96317
G1 X97.24 Y97.24 E329.96383
G1 X97.13 Y97.14 E329.96474
G1 X96.91 Y97.04 E329.96625
G1 X96.81 Y97.01 E329.96689
G1 X96.65 Y96.99 E329.96784
G1 X96.41 Y97.03 E329.96935
G1 X96.24 Y97.10 E329.97045
G1 X96.13 Y97.19 E329.97136
G1 X95.42 Y97.46 E329.97596
G1 X95.34 Y97.48 E329.97649
G1 X95.07 Y97.50 E329.97811
G1 X94.80 Y97.48 E329.97974
G1 X94.73 Y97.49 E329.98021
G1 X94.45 Y97.43 E329.98195
G1 X94.06 Y97.31 E329.98443
G1 X94.01 Y97.08 E329.98582
G1 X94.35 Y96.78 E329.98857
G1 X94.68 Y96.54 E329.99106
G1 X94.94 Y96.41 E329.99283
G1 X95.11 Y96.35 E329.99396
G1 X95.31 Y96.28 E329.99524
G1 X96.18 Y96.24 E330.00054
G1 X96.30 Y96.18 E330.00136
G1 X96.46 Y96.14 E330.00235
G1 X96.67 Y95.93 E330.00414
G1 X96.68 Y95.90 E330.00437
G1 X96.72 Y95.86 E330.00467
G1 X96.79 Y95.72 E330.00563
G1 X96.84 Y95.49 E330.00706
G1 X96.85 Y95.38 E330.00777
G1 X96.93 Y94.42 E330.01360
G1 X96.92 Y94.32 E330.01424
G1 X96.87 Y94.15 E330.01530
G1 X96.87 Y94.07 E330.01578
G1 X96.82 Y93.89 E330.01694
G1 X96.68 Y93.68 E330.01846
G1 X96.54 Y93.55 E330.01963
G1 X96.33 Y93.43 E330.02108
G1 X96.25 Y93.40 E330.02165
G1 X96.14 Y93.39 E330.02233
G1 X95.95 Y93.40 E330.02346
G1 X95.26 Y93.25 E330.02775
G1 X94.95 Y93.10 E330.02989
G1 X94.73 Y92.93 E330.03156
G1 X94.68 Y92.91 E330.03191
G1 X94.42 Y92.66 E330.03407
G1 X94.35 Y92.61 E330.03460
G1 X94.12 Y92.33 E330.03681
G1 X94.18 Y92.17 E330.03787
G1 X94.68 Y92.09 E330.04092
G1 X95.09 Y92.07 E330.04345
G1 X95.35 Y92.10 E330.04504
G1 X95.38 Y92.10 E330.04521
G1 X95.48 Y92.12 E330.04582
G1 X95.61 Y92.17 E330.04669
G1 X96.30 Y92.56 E330.05153
G1 X96.39 Y92.60 E330.05211
G1 X96.73 Y92.67 E330.05427
G1 X96.83 Y92.68 E330.05484
G1 X96.97 Y92.66 E330.05574
G1 X97.22 Y92.58 E330.05732
G1 X97.42 Y92.42 E330.05890
G1 X97.44 Y92.38 E330.05921
G1 X97.50 Y92.32 E330.05964
G1 X97.57 Y92.20 E330.06053
G1 X97.62 Y92.06 E330.06146
G1 X98.19 Y91.30 E330.06726
G1 X98.29 Y91.10 E330.06862
G1 X98.32 Y90.95 E330.06956
G1 X98.31 Y90.68 E330.07121
G1 X98.27 Y90.53 E330.07214
G1 X98.11 Y90.29 E330.07386
G1 X97.43 Y89.61 E330.07978
G1 X97.35 Y89.55 E330.08040
G1 X97.30 Y89.53 E330.08073
G1 X97.18 Y89.31 E330.08222
G1 X97.08 Y89.06 E330.08387
G1 X97.05 Y89.01 E330.08422
G1 X96.97 Y88.67 E330.08637
G1 X96.93 Y88.59 E330.08689
G1 X96.89 Y88.23 E330.08911
G1 X97.00 Y88.15 E330.08995
G1 X97.34 Y88.30 E330.09223
G1 X97.45 Y88.33 E330.09289
G1 X97.74 Y88.50 E330.09493
G1 X97.82 Y88.53 E330.09547
G1 X98.01 Y88.68 E330.09696
G1 X98.07 Y88.71 E330.09735
G1 X98.18 Y88.83 E330.09832
G1 X98.20 Y88.85 E330.09850
G1 X98.60 Y89.60 E330.10370
G1 X98.66 Y89.67 E330.10427
G1 X98.92 Y89.94 E330.10655
G1 X99.03 Y90.01 E330.10735
G1 X99.27 Y90.09 E330.10888
G1 X99.40 Y90.11 E330.10971
G1 X99.56 Y90.09 E330.11066
G1 X99.63 Y90.07 E330.11113
G1 X99.73 Y90.05 E330.11177
G1 X99.87 Y89.98 E330.11267
G1 X99.98 Y89.89 E330.11358
G1 X100.87 Y89.57 E330.11933
G1 X100.95 Y89.51 E330.11993
G1 X101.09 Y89.44 E330.12086
G1 X101.25 Y89.24 E330.12245
G1 X101.26 Y89.19 E330.12278
G1 X101.31 Y89.12 E330.12327
G1 X101.35 Y88.97 E330.12424
G1 X101.36 Y88.75 E330.12557
G1 X101.36 Y88.67 E330.12603
G1 X101.15 Y87.72 E330.13197
G1 X101.11 Y87.63 E330.13259
G1 X101.08 Y87.58 E330.13292
G1 X101.08 Y87.55 E330.13309
G1 X101.10 Y87.37 E330.13423
G1 X101.10 Y87.34 E330.13442
G1 X101.15 Y87.08 E330.13602
G1 X101.15 Y87.00 E330.13652
G1 X101.15 Y86.94 E330.13690
G1 X101.28 Y86.56 E330.13933
G1 X101.28 Y86.53 E330.13951
G1 X101.41 Y86.27 E330.14125
G1 X101.58 Y86.26 E330.14230
G1 X101.78 Y86.58 E330.14460
G1 X101.86 Y86.66 E330.14530
G1 X102.00 Y86.96 E330.14729
G1 X102.06 Y87.03 E330.14782
G1 X102.13 Y87.26 E330.14932
G1 X102.17 Y87.31 E330.14970
G1 X102.21 Y87.50 E330.15089
G1 X102.22 Y87.55 E330.15116
G1 X102.14 Y88.35 E330.15606
G1 X102.14 Y88.44 E330.15664
G1 X102.23 Y88.80 E330.15887
G1 X102.27 Y88.90 E330.15955
G1 X102.44 Y89.14 E330.16135
G1 X102.57 Y89.23 E330.16233
G1 X102.82 Y89.33 E330.16393
G1 X103.87 Y89.57 E330.17048
G1 X103.97 Y89.57 E330.17114
G1 X104.16 Y89.54 E330.17231
G1 X104.32 Y89.56 E330.17325
G1 X104.55 Y89.48 E330.17471
G1 X104.59 Y89.44 E330.17509
G1 X104.72 Y89.38 E330.17594
G1 X104.88 Y89.21 E330.17739
G1 X104.90 Y89.15 E330.17776
G1 X104.96 Y89.06 E330.17840
G1 X105.01 Y88.89 E330.17947
G1 X105.01 Y88.75 E330.18037
G1 X105.28 Y88.04 E330.18495
G1 X105.32 Y87.96 E330.18551
G1 X105.48 Y87.75 E330.18714
G1 X105.71 Y87.50 E330.18920
G1 X105.99 Y87.28 E330.19138
G1 X106.05 Y87.21 E330.19192
G1 X106.25 Y87.09 E330.19334
G1 X106.45 Y87.21 E330.19474
G1 X106.45 Y87.52 E330.19669
G1 X106.47 Y87.63 E330.19737
G1 X106.43 Y87.96 E330.19935
G1 X106.43 Y88.05 E330.19990
G1 X106.45 Y88.11 E330.20027
G1 X106.39 Y88.36 E330.20189
G1 X106.32 Y88.54 E330.20302
G1 X106.24 Y88.73 E330.20429
G1 X105.71 Y89.40 E330.20952
G1 X105.66 Y89.55 E330.21045
G1 X105.62 Y89.63 E330.21101
G1 X105.60 Y89.79 E330.21201
G1 X105.62 Y90.03 E330.21344
G1 X105.65 Y90.13 E330.21407
G1 X105.73 Y90.26 E330.21499
G1 X105.84 Y90.41 E330.21613
G1 X106.59 Y91.17 E330.22263
G1 X106.67 Y91.22 E330.22325
G1 X106.83 Y91.30 E330.22430
G1 X106.89 Y91.35 E330.22480
G1 X106.97 Y91.40 E330.22537
G1 X107.12 Y91.45 E330.22630
G1 X107.40 Y91.48 E330.22804
G1 X107.64 Y91.41 E330.22954
G1 X107.68 Y91.37 E330.22990
G1 X107.78 Y91.33 E330.23052
G1 X107.91 Y91.22 E330.23160
G1 X108.00 Y91.10 E330.23250
G1 X108.58 Y90.66 E330.23698
G1 X108.71 Y90.59 E330.23785
G1 X108.92 Y90.51 E330.23923
G1 X109.24 Y90.43 E330.24127
G1 X109.25 Y90.43 E330.24133
G1 X109.61 Y90.39 E330.24351
G1 X109.70 Y90.37 E330.24407
G1 X109.93 Y90.38 E330.24547
G1 X110.05 Y90.61 E330.24710
G1 X109.85 Y90.93 E330.24938
G1 X109.82 Y91.00 E330.24988
G1 X109.59 Y91.27 E330.25202
G1 X109.56 Y91.32 E330.25235
G1 X109.35 Y91.52 E330.25413
G1 X109.03 Y91.75 E330.25653
G1 X108.22 Y92.03 E330.26177
G1 X107.97 Y92.21 E330.26363
G1 X107.83 Y92.46 E330.26539
G1 X107.83 Y92.49 E330.26561
G1 X107.81 Y92.54 E330.26593
G1 X107.77 Y92.70 E330.26692
G1 X107.79 Y92.94 E330.26839
G1 X108.01 Y93.98 E330.27489
G1 X108.05 Y94.08 E330.27554
G1 X108.14 Y94.23 E330.27658
G1 X108.17 Y94.33 E330.27723
G1 X108.25 Y94.45 E330.27814
G1 X108.44 Y94.62 E330.27968
G1 X108.54 Y94.68 E330.28039
G1 X108.69 Y94.74 E330.28135
G1 X108.92 Y94.77 E330.28276
G1 X109.10 Y94.75 E330.28385
G1 X109.23 Y94.69 E330.28477
G1 X109.96 Y94.64 E330.28923
G1 X110.25 Y94.70 E330.29103
G1 X110.29 Y94.70 E330.29124
G1 X110.54 Y94.79 E330.29287
G1 X110.60 Y94.81 E330.29325
G1 X110.91 Y94.96 E330.29538
G1 X110.99 Y94.99 E330.29593
G1 X111.25 Y95.17 E330.29779
G1 X111.23 Y95.39 E330.29919
G1 X110.89 Y95.55 E330.30146
G1 X110.82 Y95.59 E330.30195
G1 X110.49 Y95.70 E330.30409
G1 X110.44 Y95.72 E330.30442
G1 X110.15 Y95.78 E330.30621
G1 X109.97 Y95.79 E330.30732
G1 X109.13 Y95.59 E330.31257
G1 X109.02 Y95.58 E330.31323
G1 X108.78 Y95.61 E330.31474
G1 X108.63 Y95.61 E330.31563
G1 X108.39 Y95.72 E330.31721
G1 X108.36 Y95.76 E330.31753
G1 X108.25 Y95.83 E330.31832
G1 X108.10 Y96.03 E330.31984
G1 X108.09 Y96.09 E330.32023
G1 X108.05 Y96.16 E330.32073
G1 X108.02 Y96.30 E330.32157
G1 X108.01 Y96.45 E330.32249
G1 X107.68 Y97.32 E330.32817
G1 X107.64 Y97.53 E330.32951
G1 X107.64 Y97.71 E330.33056
G1 X107.74 Y97.97 E330.33227
G1 X107.82 Y98.09 E330.33318
G1 X108.03 Y98.28 E330.33490
G1 X108.88 Y98.74 E330.34082
G1 X109.04 Y98.79 E330.34178
G1 X109.21 Y98.96 E330.34330
G1 X109.42 Y99.21 E330.34526
G1 X109.59 Y99.52 E330.34742
G1 X109.65 Y99.58 E330.34793
G1 X109.79 Y99.92 E330.35017
G1 X109.68 Y100.06 E330.35123
G1 X109.33 Y100.01 E330.35340
G1 X108.90 Y99.89 E330.35612
G1 X108.81 Y99.89 E330.35665
G1 X108.59 Y99.79 E330.35814
G1 X108.53 Y99.78 E330.35852
G1 X108.32 Y99.66 E330.35998
G1 X107.76 Y99.08 E330.36491
G1 X107.67 Y99.01 E330.36557
G1 X107.51 Y98.93 E330.36669
G1 X107.40 Y98.87 E330.36746
G1 X107.29 Y98.82 E330.36820
G1 X107.14 Y98.80 E330.36913
G1 X107.04 Y98.81 E330.36972
G1 X106.88 Y98.80 E330.37070
G1 X106.63 Y98.91 E330.37235
G1 X106.60 Y98.95 E330.37262
G1 X106.55 Y98.98 E330.37301
G1 X106.44 Y99.07 E330.37390
G1 X106.35 Y99.20 E330.37482
G1 X105.60 Y99.75 E330.38055
G1 X105.42 Y99.93 E330.38207
G1 X105.33 Y100.16 E330.38357
G1 X105.33 Y100.22 E330.38392
G1 X105.30 Y100.32 E330.38454
G1 X105.30 Y100.49 E330.38559
G1 X105.37 Y100.71 E330.38702
G1 X105.85 Y101.60 E330.39317
G1 X105.95 Y101.72 E330.39415
G1 X106.01 Y101.96 E330.39566
G1 X106.04 Y102.29 E330.39764
G1 X106.03 Y102.63 E330.39976
G1 X106.04 Y102.72 E330.40030
G1 X105.97 Y103.08 E330.40252
G1 X105.85 Y103.12 E330.40335
G1 X105.56 Y102.88 E330.40564
G1 X105.47 Y102.82 E330.40630
G1 X105.24 Y102.58 E330.40835
G1 X105.17 Y102.52 E330.40889
G1 X105.03 Y102.32 E330.41037
G1 X104.99 Y102.28 E330.41076
G1 X104.89 Y102.11 E330.41194
G1 X104.87 Y102.07 E330.41223
G1 X104.72 Y101.28 E330.41711
G1 X104.51 Y100.86 E330.41997
G1 X104.42 Y100.77 E330.42077
G1 X104.21 Y100.61 E330.42233
G1 X104.08 Y100.56 E330.42320
G1 X103.93 Y100.54 E330.42415
G1 X103.86 Y100.54 E330.42459
G1 X103.76 Y100.53 E330.42520
G1 X103.61 Y100.56 E330.42611
G1 X103.47 Y100.62 E330.42703
G1 X102.53 Y100.67 E330.43279
G1 X102.29 Y100.73 E330.43431
G1 X102.07 Y100.89 E330.43594
G1 X102.05 Y100.93 E330.43622
G1 X101.96 Y101.00 E330.43692
G1 X101.85 Y101.22 E330.43843
G1 X101.85 Y101.29 E330.43880
G1 X101.82 Y101.41 E330.43958
G1 X101.75 Y102.36 E330.44540
G0 F7620 X102.10 Y98.19
G1 F3240 X102.20 Y98.20 E330.44603
G1 X102.47 Y98.17 E330.44770
G1 X102.51 Y98.15 E330.44796
G1 X103.07 Y98.15 E330.45138
G1 X103.25 Y98.10 E330.45249
G1 X103.32 Y98.04 E330.45307
G1 X103.87 Y97.90 E330.45651
G1 X104.02 Y97.80 E330.45763
G1 X104.08 Y97.73 E330.45820
G1 X104.57 Y97.44 E330.46164
G1 X104.70 Y97.31 E330.46277
G1 X104.74 Y97.22 E330.46334
G1 X105.13 Y96.82 E330.46677
G1 X105.22 Y96.66 E330.46791
G1 X105.24 Y96.57 E330.46848
G1 X105.52 Y96.08 E330.47191
G1 X105.56 Y95.89 E330.47307
G1 X105.55 Y95.80 E330.47362
G1 X105.68 Y95.31 E330.47671
G1 X105.69 Y94.58 E330.48118
G1 X105.47 Y93.75 E330.48640
G1 X105.43 Y93.66 E330.48701
G1 X105.05 Y93.03 E330.49151
G1 X104.98 Y92.95 E330.49214
G1 X104.46 Y92.45 E330.49656
G1 X104.39 Y92.40 E330.49706
G1 X103.65 Y91.99 E330.50220
G1 X102.90 Y91.80 E330.50692
G1 X102.80 Y91.80 E330.50755
G1 X102.53 Y91.83 E330.50922
G1 X102.49 Y91.85 E330.50949
G1 X101.93 Y91.85 E330.51290
G1 X101.75 Y91.90 E330.51401
G1 X101.68 Y91.96 E330.51459
G1 X101.13 Y92.10 E330.51803
G1 X100.98 Y92.20 E330.51915
G1 X100.92 Y92.27 E330.51973
G1 X100.43 Y92.56 E330.52317
G1 X100.30 Y92.69 E330.52429
G1 X100.26 Y92.78 E330.52488
G1 X99.86 Y93.18 E330.52830
G1 X99.78 Y93.34 E330.52944
G1 X99.76 Y93.43 E330.53001
G1 X99.48 Y93.92 E330.53344
G1 X99.44 Y94.11 E330.53459
G1 X99.45 Y94.20 E330.53516
G1 X99.32 Y94.68 E330.53824
G1 X99.31 Y95.42 E330.54271
G1 X99.32 Y95.50 E330.54321
G1 X99.53 Y96.25 E330.54794
